svg/blobs-icons/no-decorations/short-broom.svg

<svg xmlns="http://www.w3.org/2000/svg" xmlns:xlink="http://www.w3.org/1999/xlink" preserveAspectRatio="xMidYMid" width="135" height="218" viewBox="0 0 135 218"><defs><style>.cls-3{fill:#fbb713}.cls-4{fill:#000;opacity:.25}.cls-9{fill:#142a3b}.cls-10{fill:#ededed}</style></defs><g id="group-31svg"><path d="M47.852 215.115s13.711.0 13.711.0 5.681-29.466 5.681-29.466.0 31.246.0 31.246 24.16.0 24.16.0.0-32.501.0-32.501 16.669 30.721 29.876 30.721h13.208C126.39 192.508 127.43 187.576 134.488 168.063V122.728c0-14.749-11.955-26.703-26.703-26.703H26.703C11.955 96.025.0 107.979.0 122.728v91.9s20.215.0 20.215.0.0-32.755.0-32.755 4.688 31.848 4.688 31.848 9.825.0 9.825.0 4.211-23.86 4.211-23.86 8.913 25.254 8.913 25.254z" id="path-1" class="cls-3" fill-rule="evenodd"/><path d="M51.961 215.115s0-19.276.0-19.276-3.716 19.276-3.716 19.276 3.716.0 3.716.0z" id="path-2" class="cls-4" fill-rule="evenodd"/><path d="M23.655 200.05S23.238 202.412 23.238 202.412s1.665 11.309 1.665 11.309 3.578.0 3.578.0-4.826-13.671-4.826-13.671z" id="path-3" class="cls-4" fill-rule="evenodd"/><path d="M4.931 192.062s0 22.566.0 22.566 3.322.0 3.322.0-3.322-22.566-3.322-22.566z" id="path-4" class="cls-4" fill-rule="evenodd"/><path d="M76.121 194.583s0 22.312.0 22.312 15.283.0 15.283.0S91.404 216.28 91.404 216.28C82.995 207.215 76.121 194.583 76.121 194.583z" id="path-5" class="cls-4" fill-rule="evenodd"/><path d="M134.488 122.728c0-14.749-11.955-26.703-26.703-26.703H26.703C17.851 96.025 10.065 100.381 5.206 107.014 7.209 106.535 9.27 106.214 11.419 106.214H92.502c14.747.0 26.703 11.955 26.703 26.702v45.336C113.605 193.732 111.814 200.062 115.348 213.293c2.009 1.114 4.008 1.822 5.93300000000001 1.822h13.207C126.39 192.508 127.43 187.576 134.488 168.063V122.728z" id="path-6" class="cls-4" fill-rule="evenodd"/><path d="M81.588 97.884S89.79 15.867 89.79 15.867C90.639 7.381 83.975.015 75.445.015H59.042c-8.528.0-15.193 7.366-14.345 15.852l8.202 82.017s28.689.0 28.689.0z" id="path-7" class="cls-9" fill-rule="evenodd"/><path d="M70.846 44.396S72.907 23.798 72.907 23.798C73.119 21.668 71.445 19.818 69.303 19.818H65.184c-2.142.0-3.815 1.85-3.602 3.98l2.059 20.598S70.846 44.396 70.846 44.396z" id="path-8" class="cls-10" fill-rule="evenodd"/><path d="M134.488 144.697s-134.487.0-134.487.0S.001 137.467.001 137.467s134.487.0 134.487.0S134.488 144.697 134.488 144.697z" id="path-9" class="cls-9" fill-rule="evenodd"/><path d="M134.488 129.917s-134.487.0-134.487.0.0-7.23.0-7.23 134.487.0 134.487.0.0 7.23.0 7.23z" id="path-10" class="cls-9" fill-rule="evenodd"/></g></svg>

<svg xmlns="http://www.w3.org/2000/svg" xmlns:xlink="http://www.w3.org/1999/xlink" preserveAspectRatio="xMidYMid" width="135" height="218" viewBox="0 0 135 218">
  <defs>
    <style>

      .cls-3 {
        fill: #fbb713;
      }

      .cls-4 {
        fill: #000000;
        opacity: 0.25;
      }

      .cls-9 {
        fill: #142a3b;
      }

      .cls-10 {
        fill: #ededed;
      }
    </style>
  </defs>
  <g id="group-31svg">
    <path d="M47.852,215.115 C47.852,215.115 61.563,215.115 61.563,215.115 C61.563,215.115 67.244,185.649 67.244,185.649 C67.244,185.649 67.244,216.895 67.244,216.895 C67.244,216.895 91.404,216.895 91.404,216.895 C91.404,216.895 91.404,184.394 91.404,184.394 C91.404,184.394 108.073,215.115 121.280,215.115 C121.280,215.115 134.488,215.115 134.488,215.115 C126.390,192.508 127.430,187.576 134.488,168.063 C134.488,168.063 134.488,122.728 134.488,122.728 C134.488,107.979 122.533,96.025 107.785,96.025 C107.785,96.025 26.703,96.025 26.703,96.025 C11.955,96.025 -0.000,107.979 -0.000,122.728 C-0.000,122.728 -0.000,214.628 -0.000,214.628 C-0.000,214.628 20.215,214.628 20.215,214.628 C20.215,214.628 20.215,181.873 20.215,181.873 C20.215,181.873 24.903,213.721 24.903,213.721 C24.903,213.721 34.728,213.721 34.728,213.721 C34.728,213.721 38.939,189.861 38.939,189.861 C38.939,189.861 47.852,215.115 47.852,215.115 Z" id="path-1" class="cls-3" fill-rule="evenodd"/>
    <path d="M51.961,215.115 C51.961,215.115 51.961,195.839 51.961,195.839 C51.961,195.839 48.245,215.115 48.245,215.115 C48.245,215.115 51.961,215.115 51.961,215.115 Z" id="path-2" class="cls-4" fill-rule="evenodd"/>
    <path d="M23.655,200.050 C23.655,200.050 23.238,202.412 23.238,202.412 C23.238,202.412 24.903,213.721 24.903,213.721 C24.903,213.721 28.481,213.721 28.481,213.721 C28.481,213.721 23.655,200.050 23.655,200.050 Z" id="path-3" class="cls-4" fill-rule="evenodd"/>
    <path d="M4.931,192.062 C4.931,192.062 4.931,214.628 4.931,214.628 C4.931,214.628 8.253,214.628 8.253,214.628 C8.253,214.628 4.931,192.062 4.931,192.062 Z" id="path-4" class="cls-4" fill-rule="evenodd"/>
    <path d="M76.121,194.583 C76.121,194.583 76.121,216.895 76.121,216.895 C76.121,216.895 91.404,216.895 91.404,216.895 C91.404,216.895 91.404,216.280 91.404,216.280 C82.995,207.215 76.121,194.583 76.121,194.583 Z" id="path-5" class="cls-4" fill-rule="evenodd"/>
    <path d="M134.488,122.728 C134.488,107.979 122.533,96.025 107.785,96.025 C107.785,96.025 26.703,96.025 26.703,96.025 C17.851,96.025 10.065,100.381 5.206,107.014 C7.209,106.535 9.270,106.214 11.419,106.214 C11.419,106.214 92.502,106.214 92.502,106.214 C107.249,106.214 119.205,118.169 119.205,132.916 C119.205,132.916 119.205,178.252 119.205,178.252 C113.605,193.732 111.814,200.062 115.348,213.293 C117.357,214.407 119.356,215.115 121.281,215.115 C121.281,215.115 134.488,215.115 134.488,215.115 C126.390,192.508 127.430,187.576 134.488,168.063 C134.488,168.063 134.488,122.728 134.488,122.728 Z" id="path-6" class="cls-4" fill-rule="evenodd"/>
    <path d="M81.588,97.884 C81.588,97.884 89.790,15.867 89.790,15.867 C90.639,7.381 83.975,0.015 75.445,0.015 C75.445,0.015 59.042,0.015 59.042,0.015 C50.514,0.015 43.849,7.381 44.697,15.867 C44.697,15.867 52.899,97.884 52.899,97.884 C52.899,97.884 81.588,97.884 81.588,97.884 Z" id="path-7" class="cls-9" fill-rule="evenodd"/>
    <path d="M70.846,44.396 C70.846,44.396 72.907,23.798 72.907,23.798 C73.119,21.668 71.445,19.818 69.303,19.818 C69.303,19.818 65.184,19.818 65.184,19.818 C63.042,19.818 61.369,21.668 61.582,23.798 C61.582,23.798 63.641,44.396 63.641,44.396 C63.641,44.396 70.846,44.396 70.846,44.396 Z" id="path-8" class="cls-10" fill-rule="evenodd"/>
    <path d="M134.488,144.697 C134.488,144.697 0.001,144.697 0.001,144.697 C0.001,144.697 0.001,137.467 0.001,137.467 C0.001,137.467 134.488,137.467 134.488,137.467 C134.488,137.467 134.488,144.697 134.488,144.697 Z" id="path-9" class="cls-9" fill-rule="evenodd"/>
    <path d="M134.488,129.917 C134.488,129.917 0.001,129.917 0.001,129.917 C0.001,129.917 0.001,122.687 0.001,122.687 C0.001,122.687 134.488,122.687 134.488,122.687 C134.488,122.687 134.488,129.917 134.488,129.917 Z" id="path-10" class="cls-9" fill-rule="evenodd"/>
  </g>
</svg>
